icons/hicolor/16x16/actions/icon-swirl-symbolic.svg

<svg width="64" height="64" viewBox="0 0 64 64" fill="none" xmlns="http://www.w3.org/2000/svg">
<path d="M60.8573 26.9806C58.056 18.152 50.2701 11.0432 41.098 9.43589C32.6474 7.78314 23.366 11.1016 18.1493 18.0135C13.2121 24.2765 12.1226 33.3878 15.7893 40.523C19.0091 47.1456 26.2265 51.6587 33.6275 51.3145C40.457 51.1572 47.0301 46.6933 49.4113 40.2434C51.8695 34.0718 50.0327 26.4019 44.7395 22.2818C40.5777 18.8559 34.461 18.0769 29.5992 20.4316C23.303 22.7597 19.9033 30.6028 22.6088 36.781C25.0384 43.2524 33.2837 46.5102 39.4784 43.4273C41.8613 42.1155 42.8787 41.0982 43.8163 40.2207C40.9014 45.3013 34.2267 47.4908 28.7662 45.5934C22.478 43.6421 18.29 37.0504 18.6874 30.5568C18.9107 23.7592 23.7326 17.5613 30.0798 15.2858C37.1094 12.5804 45.4969 14.6514 50.7447 19.9721C56.7148 25.7694 58.6664 35.0567 55.9915 42.8734C53.2093 51.5715 45.1954 58.1246 36.2435 59.5945C26.4384 61.3935 15.9948 57.2557 9.72559 49.5829C4.77132 43.7072 3.20969 35.4346 4.39336 27.9661C6.17084 16.28 15.9287 6.41929 27.5715 4.462C38.3001 2.38874 49.9369 7.11833 56.1528 16.1142C58.4582 19.3545 60.0698 23.0829 60.8573 26.9806Z" fill="#CCCCCC"/>
</svg>

<svg xmlns="http://www.w3.org/2000/svg" width="64" height="64" fill="none"><path fill="#CCC" d="M60.857 26.98C58.056 18.153 50.27 11.044 41.098 9.437c-8.45-1.653-17.732 1.666-22.949 8.578-4.937 6.262-6.026 15.374-2.36 22.509 3.22 6.623 10.438 11.136 17.838 10.792 6.83-.158 13.403-4.622 15.784-11.072 2.459-6.171.622-13.841-4.672-17.961-4.161-3.426-10.278-4.205-15.14-1.85-6.296 2.328-9.696 10.17-6.99 16.349 2.43 6.471 10.675 9.73 16.87 6.646 2.382-1.312 3.4-2.329 4.337-3.206-2.915 5.08-9.59 7.27-15.05 5.372-6.288-1.95-10.476-8.543-10.079-15.036.224-6.798 5.046-12.996 11.393-15.271 7.03-2.706 15.417-.635 20.665 4.686 5.97 5.797 7.921 15.085 5.247 22.901-2.783 8.699-10.797 15.252-19.748 16.722-9.806 1.799-20.25-2.34-26.518-10.012C4.77 43.707 3.21 35.435 4.393 27.966 6.171 16.28 15.93 6.42 27.572 4.462 38.3 2.389 49.936 7.118 56.152 16.114a28.6 28.6 0 0 1 4.705 10.867"/></svg>
